images/cq_optimisation-web.svg

<svg width="124" height="124" viewBox="0 0 124 124" fill="none" xmlns="http://www.w3.org/2000/svg">
<path d="M62 124C96.2417 124 124 96.2417 124 62C124 27.7583 96.2417 0 62 0C27.7583 0 0 27.7583 0 62C0 96.2417 27.7583 124 62 124Z" fill="white"/>
<path d="M62 123.5C95.9655 123.5 123.5 95.9655 123.5 62C123.5 28.0345 95.9655 0.5 62 0.5C28.0345 0.5 0.5 28.0345 0.5 62C0.5 95.9655 28.0345 123.5 62 123.5Z" stroke="#FEAB45"/>
<path d="M62 115C91.2711 115 115 91.2711 115 62C115 32.7289 91.2711 9 62 9C32.7289 9 9 32.7289 9 62C9 91.2711 32.7289 115 62 115Z" fill="#FEAB45"/>
<path d="M33.2174 43.715C33.9999 43.715 34.6341 43.0807 34.6341 42.2983C34.6341 41.5159 33.9999 40.8817 33.2174 40.8817C32.435 40.8817 31.8008 41.5159 31.8008 42.2983C31.8008 43.0807 32.435 43.715 33.2174 43.715Z" fill="white"/>
<path d="M42.6667 43.715C43.4491 43.715 44.0833 43.0807 44.0833 42.2983C44.0833 41.5159 43.4491 40.8817 42.6667 40.8817C41.8843 40.8817 41.25 41.5159 41.25 42.2983C41.25 43.0807 41.8843 43.715 42.6667 43.715Z" fill="white"/>
<path d="M37.9491 43.715C38.7315 43.715 39.3658 43.0807 39.3658 42.2983C39.3658 41.5159 38.7315 40.8817 37.9491 40.8817C37.1667 40.8817 36.5325 41.5159 36.5325 42.2983C36.5325 43.0807 37.1667 43.715 37.9491 43.715Z" fill="white"/>
<path d="M48.3333 62.8542L52.5833 58.6042C52.85 58.3374 52.9999 57.9756 52.9999 57.5983C52.9999 57.2211 52.85 56.8593 52.5833 56.5925C52.3165 56.3257 51.9547 56.1759 51.5774 56.1759C51.2002 56.1759 50.8384 56.3257 50.5716 56.5925L45.3016 61.8767C45.0377 62.1421 44.8896 62.5012 44.8896 62.8754C44.8896 63.2497 45.0377 63.6087 45.3016 63.8742L50.5716 69.1583C50.7033 69.2911 50.86 69.3965 51.0326 69.4684C51.2053 69.5404 51.3904 69.5774 51.5774 69.5774C51.7645 69.5774 51.9496 69.5404 52.1223 69.4684C52.2949 69.3965 52.4516 69.2911 52.5833 69.1583C52.8471 68.8929 52.9952 68.5338 52.9952 68.1596C52.9952 67.7853 52.8471 67.4263 52.5833 67.1608L48.3333 62.8542Z" fill="white"/>
<path d="M68.6201 69.13C68.8856 69.3939 69.2446 69.542 69.6189 69.542C69.9931 69.542 70.3522 69.3939 70.6176 69.13L75.9018 63.9167C76.1657 63.6512 76.3138 63.2922 76.3138 62.9179C76.3138 62.5437 76.1657 62.1846 75.9018 61.9192L70.6176 56.635C70.3509 56.3701 69.9898 56.2221 69.6139 56.2234C69.2379 56.2247 68.8779 56.3753 68.613 56.6421C68.3482 56.9088 68.2001 57.2699 68.2014 57.6458C68.2028 58.0218 68.3534 58.3818 68.6201 58.6467L72.8701 62.8967L68.6201 67.1467C68.3606 67.4115 68.2152 67.7675 68.2152 68.1383C68.2152 68.5091 68.3606 68.8652 68.6201 69.13V69.13Z" fill="white"/>
<path d="M63.9168 57.0458C63.7551 56.9522 63.5765 56.8914 63.3912 56.8671C63.2059 56.8427 63.0177 56.8553 62.8373 56.904C62.6569 56.9527 62.4879 57.0366 62.3401 57.1509C62.1923 57.2652 62.0685 57.4077 61.976 57.57L56.7485 66.75C56.646 66.9112 56.5771 67.0916 56.5461 67.2801C56.5151 67.4686 56.5226 67.6615 56.568 67.8471C56.6135 68.0326 56.696 68.2071 56.8106 68.36C56.9253 68.5128 57.0696 68.6409 57.235 68.7365C57.4005 68.8321 57.5835 68.8933 57.7732 68.9163C57.9629 68.9394 58.1552 68.9238 58.3387 68.8706C58.5222 68.8173 58.6931 68.7275 58.8409 68.6066C58.9888 68.4856 59.1107 68.336 59.1993 68.1667L64.4835 59.0292C64.5823 58.8632 64.6462 58.6787 64.6711 58.4871C64.696 58.2955 64.6815 58.1009 64.6284 57.9151C64.5754 57.7294 64.4849 57.5564 64.3625 57.4069C64.2401 57.2574 64.0884 57.1345 63.9168 57.0458V57.0458Z" fill="white"/>
<path d="M99.1349 76.6667C99.0514 76.666 98.97 76.6399 98.9016 76.5918C98.8333 76.5437 98.7812 76.4759 98.7524 76.3975C98.1887 74.9146 97.3899 73.5322 96.3866 72.3033C96.3391 72.2346 96.3136 72.1531 96.3136 72.0696C96.3136 71.9861 96.3391 71.9045 96.3866 71.8358C96.818 71.088 96.9351 70.1995 96.712 69.3655C96.4888 68.5314 95.9438 67.82 95.1966 67.3875L94.1341 66.75V40.8817C94.1341 39.7545 93.6863 38.6735 92.8893 37.8765C92.0923 37.0794 91.0113 36.6317 89.8841 36.6317H31.3333C30.2061 36.6317 29.1251 37.0794 28.328 37.8765C27.531 38.6735 27.0833 39.7545 27.0833 40.8817V76.78C27.087 77.6543 27.4359 78.4917 28.0542 79.1099C28.6724 79.7281 29.5098 80.0771 30.3841 80.0808H49.7499L48.3333 85.3225H46.4491C45.0692 85.3234 43.73 85.7896 42.6478 86.6456C41.5656 87.5016 40.8036 88.6975 40.4849 90.04H36.9999C36.6242 90.04 36.2639 90.1893 35.9982 90.4549C35.7325 90.7206 35.5833 91.0809 35.5833 91.4567C35.5833 91.8324 35.7325 92.1927 35.9982 92.4584C36.2639 92.7241 36.6242 92.8733 36.9999 92.8733H73.0824C73.0584 93.2118 73.0919 93.5519 73.1816 93.8792C73.2878 94.2947 73.4768 94.6846 73.7373 95.0254C73.9977 95.3662 74.3243 95.6509 74.6974 95.8625L77.6866 97.5908C78.0577 97.8039 78.4672 97.9418 78.8916 97.9965C79.316 98.0513 79.7471 98.022 80.1602 97.9102C80.5733 97.7983 80.9603 97.6062 81.2991 97.3448C81.6379 97.0834 81.9219 96.7579 82.1349 96.3867C82.1808 96.3144 82.2468 96.2571 82.3249 96.2219C82.4029 96.1867 82.4895 96.175 82.5741 96.1883C84.1303 96.4575 85.7212 96.4575 87.2774 96.1883C87.3636 96.1744 87.452 96.1873 87.5305 96.2253C87.6091 96.2633 87.6741 96.3246 87.7166 96.4008C88.0053 96.8952 88.4193 97.3048 88.9167 97.5883C89.4141 97.8719 89.9774 98.0193 90.5499 98.0158C91.1211 98.0214 91.6834 97.8747 92.1791 97.5908L95.1683 95.8625C95.5394 95.6484 95.8644 95.3629 96.1246 95.0225C96.3847 94.6821 96.5749 94.2935 96.6841 93.8792C96.7969 93.4673 96.8262 93.0371 96.7702 92.6138C96.7143 92.1904 96.5742 91.7826 96.3583 91.4142C96.3095 91.3433 96.2834 91.2593 96.2834 91.1733C96.2834 91.0873 96.3095 91.0034 96.3583 90.9325C97.3584 89.7067 98.157 88.3295 98.7241 86.8525C98.7511 86.7729 98.8027 86.7039 98.8714 86.6556C98.9402 86.6072 99.0225 86.5819 99.1066 86.5833C99.9696 86.5796 100.796 86.2351 101.406 85.6249C102.017 85.0146 102.361 84.188 102.365 83.325V79.8683C102.35 79.0189 102.004 78.2088 101.401 77.6108C100.798 77.0127 99.9844 76.6739 99.1349 76.6667V76.6667ZM29.9166 40.8817C29.9166 40.5059 30.0658 40.1456 30.3315 39.8799C30.5972 39.6143 30.9575 39.465 31.3333 39.465H89.8841C90.2598 39.465 90.6201 39.6143 90.8858 39.8799C91.1515 40.1456 91.3008 40.5059 91.3008 40.8817V45.1317H29.9166V40.8817ZM30.3841 77.2475C30.3227 77.2475 30.2619 77.2354 30.2052 77.2119C30.1485 77.1884 30.0969 77.154 30.0535 77.1106C30.0101 77.0672 29.9757 77.0156 29.9522 76.9589C29.9287 76.9022 29.9166 76.8414 29.9166 76.78V47.965H91.3008V65.3333C90.6304 65.1553 89.9206 65.1968 89.2755 65.4518C88.6304 65.7067 88.0841 66.1617 87.7166 66.75V66.75C87.6725 66.8199 87.6083 66.8748 87.5325 66.9077C87.4567 66.9405 87.3727 66.9498 87.2916 66.9342C85.7342 66.6791 84.1457 66.6791 82.5883 66.9342C82.507 66.9519 82.4223 66.9436 82.3461 66.9106C82.2698 66.8775 82.2059 66.8214 82.1633 66.75V66.75C81.9504 66.3786 81.6662 66.053 81.327 65.792C80.9878 65.5309 80.6003 65.3396 80.1868 65.2289C79.7733 65.1183 79.342 65.0906 78.9178 65.1474C78.4935 65.2043 78.0847 65.3445 77.7149 65.56L74.7258 67.2883C74.3536 67.4977 74.0275 67.78 73.7671 68.1184C73.5066 68.4567 73.3171 68.8442 73.2099 69.2575C72.9834 70.0927 73.0954 70.9835 73.5216 71.7367C73.5733 71.8036 73.6013 71.8858 73.6013 71.9704C73.6013 72.055 73.5733 72.1372 73.5216 72.2042C72.5183 73.433 71.7195 74.8155 71.1558 76.2983C71.1269 76.3768 71.0749 76.4446 71.0065 76.4927C70.9382 76.5408 70.8568 76.5669 70.7733 76.5675C70.0794 76.5685 69.4041 76.7919 68.8466 77.205L30.3841 77.2475ZM68.1666 85.3225H51.1666L52.5833 80.0808H67.4583V83.325C67.4673 84.0508 67.7164 84.7532 68.1666 85.3225V85.3225ZM46.4633 88.1558H71.6799C72.0037 88.809 72.373 89.4386 72.7849 90.04H43.4741C43.7415 89.4771 44.1629 89.0015 44.6893 88.6681C45.2158 88.3346 45.8259 88.157 46.4491 88.1558H46.4633ZM99.5599 83.325C99.5599 83.4377 99.5151 83.5458 99.4354 83.6255C99.3557 83.7052 99.2476 83.75 99.1349 83.75C98.475 83.7516 97.831 83.9527 97.2875 84.3269C96.7439 84.7011 96.3262 85.2308 96.0891 85.8467C95.6363 87.0411 94.9954 88.1554 94.1907 89.1475C93.7758 89.66 93.5254 90.2859 93.4724 90.9432C93.4193 91.6004 93.566 92.2584 93.8932 92.8308C93.916 92.8796 93.9278 92.9328 93.9278 92.9867C93.9278 93.0405 93.916 93.0937 93.8932 93.1425C93.8809 93.1988 93.8569 93.2518 93.8227 93.2982C93.7885 93.3445 93.745 93.3832 93.6949 93.4117L90.7482 95.0833C90.699 95.1107 90.6449 95.128 90.5889 95.1343C90.533 95.1406 90.4763 95.1356 90.4223 95.1198C90.3682 95.104 90.3179 95.0776 90.2741 95.0422C90.2304 95.0067 90.1941 94.9629 90.1674 94.9133C89.8325 94.3424 89.3323 93.8865 88.7328 93.6058C88.1334 93.325 87.4629 93.2326 86.8099 93.3408C85.5628 93.5533 84.2887 93.5533 83.0416 93.3408C82.3871 93.234 81.7156 93.3285 81.116 93.6118C80.5164 93.8952 80.017 94.354 79.6841 94.9275C79.6253 95.0225 79.5324 95.0915 79.4245 95.1204C79.3166 95.1494 79.2017 95.1361 79.1033 95.0833L76.1141 93.355C76.064 93.3266 76.0205 93.2879 75.9863 93.2415C75.9521 93.1951 75.9281 93.1421 75.9158 93.0858C75.893 93.037 75.8812 92.9838 75.8812 92.93C75.8812 92.8762 75.893 92.823 75.9158 92.7742C76.2392 92.2006 76.3838 91.5434 76.3307 90.887C76.2777 90.2306 76.0296 89.6051 75.6182 89.0908C74.8064 88.1013 74.1605 86.9865 73.7058 85.79C73.4681 85.1904 73.0564 84.6756 72.5237 84.3121C71.991 83.9485 71.3616 83.7527 70.7166 83.75C70.6039 83.75 70.4958 83.7052 70.4161 83.6255C70.3364 83.5458 70.2916 83.4377 70.2916 83.325V79.8683C70.2896 79.812 70.2992 79.7558 70.3199 79.7034C70.3406 79.6509 70.3718 79.6033 70.4117 79.5634C70.4515 79.5236 70.4992 79.4923 70.5516 79.4717C70.6041 79.451 70.6602 79.4414 70.7166 79.4433C71.3745 79.4408 72.0163 79.2391 72.5574 78.8649C73.0985 78.4907 73.5137 77.9614 73.7482 77.3467C74.1997 76.1486 74.8459 75.0334 75.6608 74.0458C76.0721 73.5316 76.3202 72.9061 76.3732 72.2497C76.4263 71.5933 76.2817 70.9361 75.9583 70.3625C75.9352 70.3113 75.9232 70.2558 75.9232 70.1996C75.9232 70.1434 75.9352 70.0879 75.9583 70.0367C75.9698 69.9819 75.9936 69.9305 76.028 69.8863C76.0623 69.8421 76.1063 69.8063 76.1566 69.7817L79.1458 68.0533C79.2153 68.034 79.2887 68.034 79.3583 68.0533C79.4291 68.0542 79.4987 68.0728 79.5605 68.1075C79.6224 68.1421 79.6746 68.1917 79.7124 68.2517V68.2517C80.0469 68.8238 80.5464 69.2815 81.1456 69.5646C81.7448 69.8478 82.4156 69.9432 83.0699 69.8383C84.317 69.6259 85.5911 69.6259 86.8383 69.8383C87.497 69.9273 88.1672 69.8153 88.7612 69.517C89.3552 69.2188 89.8453 68.7481 90.1674 68.1667V68.1667C90.1951 68.1199 90.2318 68.0792 90.2754 68.0467C90.3189 68.0143 90.3685 67.9908 90.4212 67.9776C90.4739 67.9644 90.5287 67.9618 90.5824 67.97C90.6361 67.9781 90.6877 67.9968 90.7341 68.025L93.7233 69.7533C93.7735 69.778 93.8175 69.8137 93.8519 69.8579C93.8862 69.9021 93.9101 69.9536 93.9216 70.0083C93.9447 70.0596 93.9566 70.1151 93.9566 70.1713C93.9566 70.2274 93.9447 70.283 93.9216 70.3342C93.5955 70.9045 93.4494 71.56 93.5025 72.2148C93.5556 72.8696 93.8054 73.493 94.2191 74.0033C95.024 75.0004 95.6648 76.1195 96.1174 77.3183C96.3407 77.9445 96.7487 78.4882 97.2874 78.8777C97.8261 79.2672 98.4703 79.4842 99.1349 79.5C99.1913 79.498 99.2474 79.5077 99.2999 79.5283C99.3523 79.549 99.4 79.5802 99.4398 79.6201C99.4797 79.6599 99.5109 79.7076 99.5316 79.7601C99.5523 79.8125 99.5619 79.8687 99.5599 79.925V83.325Z" fill="white"/>
<path d="M84.9258 75.165C83.6537 75.165 82.4102 75.5422 81.3526 76.2489C80.2949 76.9557 79.4705 77.9601 78.9837 79.1354C78.4969 80.3106 78.3696 81.6038 78.6177 82.8514C78.8659 84.0991 79.4784 85.2451 80.3779 86.1445C81.2774 87.044 82.4234 87.6566 83.671 87.9048C84.9187 88.1529 86.2119 88.0256 87.3871 87.5388C88.5623 87.052 89.5668 86.2276 90.2735 85.1699C90.9803 84.1122 91.3575 82.8687 91.3575 81.5967C91.3575 79.8909 90.6798 78.255 89.4737 77.0488C88.2675 75.8426 86.6316 75.165 84.9258 75.165ZM84.9258 85.195C84.2141 85.195 83.5184 84.984 82.9267 84.5886C82.3349 84.1932 81.8737 83.6312 81.6014 82.9737C81.329 82.3162 81.2578 81.5927 81.3966 80.8947C81.5355 80.1967 81.8782 79.5555 82.3814 79.0523C82.8846 78.549 83.5258 78.2063 84.2238 78.0675C84.9218 77.9286 85.6453 77.9999 86.3028 78.2722C86.9603 78.5446 87.5223 79.0058 87.9177 79.5975C88.3131 80.1893 88.5241 80.885 88.5241 81.5967C88.5167 82.5461 88.1343 83.4541 87.4602 84.1228C86.7862 84.7915 85.8753 85.1667 84.9258 85.1667V85.195Z" fill="white"/>
</svg>

<svg width="124" height="124" fill="none" xmlns="http://www.w3.org/2000/svg"><path d="M62 124c34.242 0 62-27.758 62-62 0-34.242-27.758-62-62-62C27.758 0 0 27.758 0 62c0 34.242 27.758 62 62 62z" fill="#fff"/><path d="M62 123.5c33.966 0 61.5-27.534 61.5-61.5C123.5 28.035 95.966.5 62 .5 28.035.5.5 28.035.5 62c0 33.966 27.535 61.5 61.5 61.5z" stroke="#FEAB45"/><path d="M62 115c29.271 0 53-23.729 53-53S91.271 9 62 9 9 32.729 9 62s23.729 53 53 53z" fill="#FEAB45"/><path d="M33.217 43.715a1.417 1.417 0 100-2.833 1.417 1.417 0 000 2.833zM42.667 43.715a1.417 1.417 0 100-2.833 1.417 1.417 0 000 2.833zM37.95 43.715a1.417 1.417 0 10-.001-2.833 1.417 1.417 0 000 2.833zM48.333 62.854l4.25-4.25a1.423 1.423 0 00-2.011-2.011l-5.27 5.284a1.416 1.416 0 000 1.997l5.27 5.284a1.416 1.416 0 102.011-1.997l-4.25-4.307zM68.62 69.13a1.417 1.417 0 001.998 0l5.284-5.213a1.417 1.417 0 000-1.998l-5.284-5.284a1.417 1.417 0 10-1.998 2.012l4.25 4.25-4.25 4.25a1.417 1.417 0 000 1.983zM63.917 57.046a1.417 1.417 0 00-1.941.524l-5.227 9.18a1.417 1.417 0 102.45 1.417l5.285-9.138a1.417 1.417 0 00-.567-1.983z" fill="#fff"/><path d="M99.135 76.667a.412.412 0 01-.383-.27 14.775 14.775 0 00-2.365-4.094.41.41 0 010-.467 3.259 3.259 0 00-1.19-4.448l-1.063-.638V40.882a4.25 4.25 0 00-4.25-4.25h-58.55a4.25 4.25 0 00-4.25 4.25V76.78a3.314 3.314 0 003.3 3.3H49.75l-1.417 5.243H46.45a6.134 6.134 0 00-5.964 4.717H37a1.417 1.417 0 000 2.833h36.082c-.024.339.01.679.1 1.006a3.187 3.187 0 001.515 1.983l2.99 1.729a3.256 3.256 0 004.448-1.204.438.438 0 01.44-.199c1.555.27 3.146.27 4.702 0a.426.426 0 01.44.213 3.258 3.258 0 002.833 1.615 3.215 3.215 0 001.63-.425l2.988-1.728a3.245 3.245 0 001.516-1.984 3.201 3.201 0 00-.326-2.465.425.425 0 010-.481c1-1.226 1.799-2.604 2.366-4.08a.396.396 0 01.383-.27 3.271 3.271 0 003.258-3.258v-3.457a3.26 3.26 0 00-3.23-3.201zM29.917 40.882a1.417 1.417 0 011.416-1.417h58.551a1.417 1.417 0 011.417 1.417v4.25H29.917v-4.25zm.467 36.366a.467.467 0 01-.467-.468V47.965H91.3v17.368a3.244 3.244 0 00-3.584 1.417.411.411 0 01-.425.184 14.548 14.548 0 00-4.704 0 .397.397 0 01-.425-.184 3.245 3.245 0 00-4.448-1.19l-2.99 1.728a3.172 3.172 0 00-1.515 1.97 3.287 3.287 0 00.312 2.479.382.382 0 010 .467 14.775 14.775 0 00-2.366 4.094.411.411 0 01-.383.27 3.244 3.244 0 00-1.926.637l-38.463.043zm37.783 8.075h-17l1.416-5.242h14.875v3.244c.01.726.258 1.428.709 1.998zm-21.704 2.833H71.68a15.58 15.58 0 001.105 1.884h-29.31a3.3 3.3 0 012.974-1.884h.014zm53.097-4.831a.425.425 0 01-.425.425 3.272 3.272 0 00-3.046 2.097 11.983 11.983 0 01-1.898 3.3 3.272 3.272 0 00-.298 3.684.368.368 0 010 .311.41.41 0 01-.198.27l-2.947 1.671a.425.425 0 01-.58-.17 3.272 3.272 0 00-3.358-1.572 11.217 11.217 0 01-3.768 0 3.273 3.273 0 00-3.358 1.587.439.439 0 01-.58.155l-2.99-1.728a.41.41 0 01-.198-.27.368.368 0 010-.31 3.3 3.3 0 00-.298-3.684 11.83 11.83 0 01-1.912-3.301 3.23 3.23 0 00-2.99-2.04.425.425 0 01-.424-.425v-3.457a.41.41 0 01.425-.425 3.258 3.258 0 003.031-2.096 11.63 11.63 0 011.913-3.301 3.3 3.3 0 00.297-3.684.396.396 0 010-.325.368.368 0 01.199-.255l2.989-1.729c.07-.019.143-.019.212 0a.424.424 0 01.354.199 3.287 3.287 0 003.358 1.586 11.223 11.223 0 013.768 0 3.3 3.3 0 003.33-1.671.41.41 0 01.566-.142l2.99 1.728a.37.37 0 01.198.255.397.397 0 010 .326 3.258 3.258 0 00.297 3.67 12.058 12.058 0 011.898 3.314 3.287 3.287 0 003.018 2.182.412.412 0 01.425.425v3.4z" fill="#fff"/><path d="M84.926 75.165a6.431 6.431 0 100 12.863 6.431 6.431 0 000-12.863zm0 10.03a3.598 3.598 0 113.598-3.598 3.598 3.598 0 01-3.598 3.57v.028z" fill="#fff"/></svg>
